html/app/assets/img/ui/select-arrow.svg

<svg fill="none" height="10" viewBox="0 0 17 10" width="17" xmlns="http://www.w3.org/2000/svg"><path clip-rule="evenodd" d="m1.13667.29287c.39053-.3905114 1.0237-.3904908 1.41421.000046l6.44914 6.449564 6.24208-6.242096c.3905-.390524 1.0237-.390524 1.4142 0 .3906.390525.3906 1.023686 0 1.414216l-7.65632 7.65635-7.86336-7.86387c-.390511-.39053-.390491-1.023698.00005-1.41421z" fill="#222" fill-rule="evenodd"/></svg>

<svg width="17" height="10" viewBox="0 0 17 10" fill="none" xmlns="http://www.w3.org/2000/svg">
<path fill-rule="evenodd" clip-rule="evenodd" d="M1.13667 0.29287C1.5272 -0.0976414 2.16037 -0.0976208 2.55088 0.292916L9.00002 6.74248L15.2421 0.500384C15.6326 0.10986 16.2658 0.10986 16.6563 0.500384C17.0469 0.890909 17.0469 1.52407 16.6563 1.9146L8.99998 9.57095L1.13662 1.70708C0.746109 1.31655 0.746129 0.683382 1.13667 0.29287Z" fill="#222222"/>
</svg>
